packages/match-logos/mono/svg/zillow.svg

<svg fill="none" height="30" viewBox="0 0 136 30" width="136" xmlns="http://www.w3.org/2000/svg" xmlns:xlink="http://www.w3.org/1999/xlink"><clipPath id="a"><path d="m0 0h135.915v30h-135.915z"/></clipPath><g clip-path="url(#a)" clip-rule="evenodd" fill="#1f304c" fill-rule="evenodd"><path d="m20.6896 0c-2.069.954907-8.1963 5.64987-11.45889 8.03714 3.97879-1.35279 13.52789-3.42175 18.38199-3.50133-1.512-1.11406-5.809-3.978781-6.9231-4.53581z"/><path d="m1.59155 30c1.35279-.557 14.08485-4.7746 25.86205-5.4907.2387-.9549 1.512-4.2971 1.7507-5.1724-12.1751.8753-22.04246 4.4562-26.02124 6.2864z"/><path d="m28.5676 5.17242s-11.8567 11.85678-13.687 13.52788c3.5809-1.2732 10.9814-2.8647 15.6764-3.1035.557-1.6711 1.1141-2.8647 1.1141-2.8647l6.2864-.6366s-4.7745-3.81963-9.3899-6.92308z"/><path d="m3.66049 24.3501c3.74005-3.8196 17.18831-16.15381 17.18831-16.15381-7.0026 1.59151-14.24401 3.81961-16.87001 5.01331l-3.8992002 3.9787c3.2626002-.7162 4.2970802-.7957 6.7639302-1.1936z"/><path d="m105.358 26.1804c-1.512 1.6711-3.501 2.7055-6.5251 2.7055-5.3316 0-8.8329-3.9787-8.8329-10.1856s3.5013-10.34486 8.8329-10.34486c2.7851 0 5.0131.9549 6.6841 2.94426 1.592 1.8303 2.308 3.9788 2.308 7.1618 0 3.5014-.796 5.8091-2.467 7.7189zm-4.217-12.9709c-.478-.6366-1.2736-1.0344-2.2285-1.0344-1.1937 0-2.2282.7957-2.626 1.9894-.3183 1.0344-.5571 2.3872-.5571 4.3766 0 2.3077.2387 3.9788.6366 4.9337.4775 1.1141 1.5915 1.5915 2.626 1.5915 2.228 0 3.183-1.9894 3.183-6.6843 0-2.5465-.318-4.2971-1.034-5.1725zm29.204 15.2786h-4.695l-1.751-6.764c-.398-1.5915-.875-3.5013-1.114-4.7745-.159-.9549-.159-1.1936-.318-1.9894-.08.8753-.159 1.1141-.478 2.5464-.398 1.6711-1.193 5.0929-1.671 6.9231l-1.034 4.0584h-4.775l-5.57-19.73478h5.252l1.591 7.32098c.478 2.3077 1.115 6.1273 1.115 6.1273s.477-3.5013 1.432-6.8435l1.83-6.60478h4.854l1.592 6.52518c.875 3.6605 1.432 7.0027 1.432 7.0027.08-.8754.557-3.8992 1.114-6.4457l1.512-7.00261h5.332zm-49.4962 0h5.252v-28.4881l-5.252 1.19363zm-10.2653 0h5.252v-28.4881l-5.252 1.19363zm-10.1856 0v-17.3475l5.1724-1.1141v18.4616zm2.5464-19.57563c-1.7507 0-3.183-1.43236-3.183-3.18303 0-1.75066 1.4323-3.18302 3.2625-3.18302 1.7507 0 3.1035 1.43236 3.1035 3.18302 0 1.75067-1.4324 3.18303-3.183 3.18303zm-7.4801 19.57563h-16.7109v-3.8197l10.1061-17.26787c.7162-1.19363 1.1141-2.14854 1.1141-2.14854s-.5571-.07958-2.2282-.07958h-8.1962l1.1936-4.45623h15.9947v3.89921l-10.1857 17.74531c-.557.955-1.0345 1.7507-1.0345 1.7507h2.2281 8.9921z"/></g></svg>

<svg width="136" height="30" viewBox="0 0 136 30" fill="none" xmlns="http://www.w3.org/2000/svg">
<g clip-path="url(#clip0)">
<path fill-rule="evenodd" clip-rule="evenodd" d="M20.6896 0C18.6206 0.954907 12.4933 5.64987 9.23071 8.03714C13.2095 6.68435 22.7586 4.61539 27.6127 4.53581C26.1007 3.42175 21.8037 0.557029 20.6896 0Z" fill="#1F304C"/>
<path fill-rule="evenodd" clip-rule="evenodd" d="M1.59155 30C2.94434 29.443 15.6764 25.2254 27.4536 24.5093C27.6923 23.5544 28.9656 20.2122 29.2043 19.3369C17.0292 20.2122 7.16184 23.7931 3.18306 25.6233L1.59155 30Z" fill="#1F304C"/>
<path fill-rule="evenodd" clip-rule="evenodd" d="M28.5676 5.17242C28.5676 5.17242 16.7109 17.0292 14.8806 18.7003C18.4615 17.4271 25.862 15.8356 30.557 15.5968C31.114 13.9257 31.6711 12.7321 31.6711 12.7321L37.9575 12.0955C37.9575 12.0955 33.183 8.27587 28.5676 5.17242Z" fill="#1F304C"/>
<path fill-rule="evenodd" clip-rule="evenodd" d="M3.66049 24.3501C7.40054 20.5305 20.8488 8.19629 20.8488 8.19629C13.8462 9.7878 6.60479 12.0159 3.97879 13.2096L0.0795898 17.1883C3.34219 16.4721 4.37667 16.3926 6.84352 15.9947L3.66049 24.3501Z" fill="#1F304C"/>
<path fill-rule="evenodd" clip-rule="evenodd" d="M105.358 26.1804C103.846 27.8515 101.857 28.8859 98.8329 28.8859C93.5013 28.8859 90 24.9072 90 18.7003C90 12.4934 93.5013 8.35544 98.8329 8.35544C101.618 8.35544 103.846 9.31034 105.517 11.2997C107.109 13.13 107.825 15.2785 107.825 18.4615C107.825 21.9629 107.029 24.2706 105.358 26.1804ZM101.141 13.2095C100.663 12.5729 99.8674 12.1751 98.9125 12.1751C97.7188 12.1751 96.6843 12.9708 96.2865 14.1645C95.9682 15.1989 95.7294 16.5517 95.7294 18.5411C95.7294 20.8488 95.9681 22.5199 96.366 23.4748C96.8435 24.5889 97.9575 25.0663 98.992 25.0663C101.22 25.0663 102.175 23.0769 102.175 18.382C102.175 15.8355 101.857 14.0849 101.141 13.2095ZM130.345 28.4881H125.65L123.899 21.7241C123.501 20.1326 123.024 18.2228 122.785 16.9496C122.626 15.9947 122.626 15.756 122.467 14.9602C122.387 15.8355 122.308 16.0743 121.989 17.5066C121.591 19.1777 120.796 22.5995 120.318 24.4297L119.284 28.4881H114.509L108.939 8.75332H114.191L115.782 16.0743C116.26 18.382 116.897 22.2016 116.897 22.2016C116.897 22.2016 117.374 18.7003 118.329 15.3581L120.159 8.75332H125.013L126.605 15.2785C127.48 18.939 128.037 22.2812 128.037 22.2812C128.117 21.4058 128.594 18.382 129.151 15.8355L130.663 8.83289H135.995L130.345 28.4881ZM80.8488 28.4881H86.1008V0L80.8488 1.19363V28.4881ZM70.5835 28.4881H75.8355V0L70.5835 1.19363V28.4881ZM60.3979 28.4881V11.1406L65.5703 10.0265V28.4881H60.3979ZM62.9443 8.91247C61.1936 8.91247 59.7613 7.48011 59.7613 5.72944C59.7613 3.97878 61.1936 2.54642 63.0238 2.54642C64.7745 2.54642 66.1273 3.97878 66.1273 5.72944C66.1273 7.48011 64.6949 8.91247 62.9443 8.91247ZM55.4642 28.4881H38.7533V24.6684L48.8594 7.40053C49.5756 6.2069 49.9735 5.25199 49.9735 5.25199C49.9735 5.25199 49.4164 5.17241 47.7453 5.17241H39.5491L40.7427 0.71618H56.7374V4.61539L46.5517 22.3607C45.9947 23.3157 45.5172 24.1114 45.5172 24.1114C45.5172 24.1114 46.7109 24.1114 47.7453 24.1114H56.7374L55.4642 28.4881Z" fill="#1F304C"/>
</g>
<defs>
<clipPath id="clip0">
<rect width="135.915" height="30" fill="white"/>
</clipPath>
</defs>
</svg>
